X:232
M:4/4
L:1/4
K:A
A E A B | c3/2 d/ c B | e A B c/d/ | c B c2 | c B c e | A G G F | B B e G | F F E2 | E3/2 F/ G B | A G F E | A B c/d/ e | d c B2 | A E A B | c3/2 d/ c B | !sintro!e A d c | B B A2 !eintro!|] A3/2 A/ B c | e c A B | E A B c | B/c/ A G2 | A3/2 A/ B c | e c A B | E3/2 A/ G E | G/A/ F E2 | F A G E | F A E E | A B c F | A/B/ G F2 | G A F E | A B d c | e c A B | c/A/ G A2 |]
